flaticon/music/drum-1.svg

<svg xmlns="http://www.w3.org/2000/svg" width="32" height="32" viewBox="0 0 24 24">
    <path d="M 24 7.914062 C 24 6.589844 22.925781 5.371094 20.960938 4.449219 L 23.707031 1.703125 C 24.097656 1.3125 24.097656 0.679688 23.707031 0.289062 C 23.328125 -0.0898438 22.671875 -0.0898438 22.292969 0.289062 L 18.894531 3.6875 C 16.886719 3.105469 14.511719 2.796875 12 2.796875 C 9.488281 2.796875 7.113281 3.105469 5.105469 3.6875 L 1.707031 0.289062 C 1.328125 -0.0898438 0.671875 -0.0898438 0.292969 0.289062 C -0.0976562 0.679688 -0.0976562 1.3125 0.292969 1.703125 L 3.039062 4.449219 C 1.074219 5.371094 0 6.589844 0 7.914062 C 0 7.9375 0.00390625 7.957031 0.00390625 7.976562 C 0.00390625 7.984375 0 7.988281 0 7.996094 L 0 18.769531 C 0 18.773438 0 18.777344 0 18.785156 C 0 18.789062 0 18.792969 0 18.796875 C 0 21.710938 5.269531 23.996094 12 23.996094 C 18.699219 23.996094 23.953125 21.730469 24 18.808594 C 24 18.796875 24 18.78125 24 18.769531 L 24 7.996094 C 24 7.988281 23.996094 7.984375 23.996094 7.976562 C 23.996094 7.957031 24 7.9375 24 7.914062 Z M 11.136719 13.144531 C 11.355469 13.148438 11.578125 13.152344 11.800781 13.15625 L 8.839844 20.089844 L 6.207031 12.527344 C 7.632812 12.863281 9.242188 13.074219 10.964844 13.136719 C 11.023438 13.140625 11.078125 13.140625 11.136719 13.144531 Z M 13.035156 13.136719 C 15.242188 13.058594 17.257812 12.730469 18.949219 12.214844 L 15.976562 20.121094 L 12.992188 13.140625 C 13.007812 13.140625 13.019531 13.136719 13.035156 13.136719 Z M 8.285156 20.929688 C 5.902344 20.582031 3.859375 19.914062 2.511719 19.066406 L 5.535156 13.023438 Z M 12.398438 13.792969 L 15.464844 20.964844 C 14.367188 21.113281 13.203125 21.195312 12 21.195312 C 11.074219 21.195312 10.164062 21.148438 9.292969 21.058594 Z M 19.613281 12.714844 L 22.355469 18.398438 C 21.257812 19.445312 19.164062 20.308594 16.582031 20.785156 Z M 22.859375 0.855469 C 22.910156 0.804688 22.96875 0.796875 23 0.796875 C 23.03125 0.796875 23.089844 0.804688 23.140625 0.855469 C 23.21875 0.933594 23.21875 1.058594 23.140625 1.136719 L 20.171875 4.109375 L 15.328125 8.949219 C 15.152344 9.125 14.960938 9.292969 14.761719 9.449219 L 14.0625 9.992188 C 14.054688 10 14.046875 10.003906 14.039062 10.003906 C 14.03125 10.007812 14.019531 10.003906 14.007812 9.988281 C 13.996094 9.976562 13.992188 9.96875 13.992188 9.960938 C 13.992188 9.953125 13.992188 9.941406 14.003906 9.929688 L 14.546875 9.230469 C 14.699219 9.035156 14.867188 8.84375 15.042969 8.667969 Z M 0.859375 0.855469 C 0.910156 0.804688 0.96875 0.796875 1 0.796875 C 1.03125 0.796875 1.089844 0.804688 1.140625 0.855469 L 4.234375 3.945312 L 8.953125 8.667969 C 9.132812 8.84375 9.300781 9.035156 9.453125 9.230469 L 9.996094 9.929688 C 10.003906 9.9375 10.007812 9.945312 10.007812 9.953125 C 10.007812 9.953125 10.011719 9.953125 10.011719 9.957031 C 10.011719 9.964844 10.007812 9.972656 9.992188 9.988281 C 9.964844 10.015625 9.953125 10.007812 9.9375 9.992188 L 9.238281 9.449219 C 9.148438 9.378906 9.070312 9.300781 8.988281 9.226562 C 8.882812 9.136719 8.769531 9.046875 8.671875 8.949219 L 3.828125 4.109375 L 0.859375 1.136719 C 0.78125 1.058594 0.78125 0.933594 0.859375 0.855469 Z M 3.640625 5.050781 L 8.105469 9.515625 C 8.304688 9.714844 8.519531 9.90625 8.746094 10.078125 L 9.445312 10.625 C 9.449219 10.625 9.453125 10.628906 9.457031 10.632812 C 9.492188 10.660156 9.53125 10.683594 9.574219 10.707031 C 9.589844 10.714844 9.605469 10.722656 9.625 10.730469 C 9.652344 10.742188 9.679688 10.753906 9.707031 10.765625 C 9.726562 10.769531 9.746094 10.773438 9.769531 10.78125 C 9.792969 10.785156 9.820312 10.792969 9.847656 10.796875 C 9.871094 10.800781 9.890625 10.800781 9.910156 10.804688 C 9.929688 10.804688 9.945312 10.808594 9.964844 10.808594 C 9.972656 10.808594 9.980469 10.804688 9.988281 10.804688 C 10.019531 10.804688 10.046875 10.800781 10.078125 10.796875 C 10.101562 10.792969 10.121094 10.789062 10.140625 10.785156 C 10.171875 10.777344 10.203125 10.769531 10.234375 10.757812 C 10.253906 10.75 10.269531 10.746094 10.289062 10.738281 C 10.324219 10.722656 10.355469 10.703125 10.386719 10.683594 C 10.402344 10.675781 10.414062 10.667969 10.429688 10.660156 C 10.46875 10.632812 10.507812 10.597656 10.546875 10.5625 C 10.550781 10.558594 10.554688 10.558594 10.558594 10.554688 C 10.867188 10.242188 10.898438 9.785156 10.628906 9.4375 L 10.085938 8.738281 C 9.910156 8.515625 9.722656 8.300781 9.519531 8.101562 L 5.753906 4.332031 C 7.597656 3.851562 9.742188 3.59375 12 3.59375 C 14.257812 3.59375 16.402344 3.851562 18.246094 4.335938 L 14.480469 8.101562 C 14.277344 8.304688 14.089844 8.519531 13.914062 8.742188 L 13.371094 9.441406 C 13.3125 9.515625 13.269531 9.597656 13.242188 9.679688 C 13.234375 9.691406 13.230469 9.703125 13.226562 9.714844 C 13.21875 9.730469 13.21875 9.75 13.214844 9.765625 C 13.207031 9.796875 13.199219 9.828125 13.195312 9.863281 C 13.191406 9.890625 13.191406 9.921875 13.191406 9.953125 C 13.191406 9.972656 13.1875 9.992188 13.191406 10.011719 C 13.203125 10.207031 13.285156 10.398438 13.441406 10.554688 C 13.445312 10.558594 13.453125 10.5625 13.457031 10.566406 C 13.492188 10.601562 13.53125 10.632812 13.570312 10.660156 C 13.585938 10.671875 13.605469 10.679688 13.621094 10.691406 C 13.648438 10.707031 13.679688 10.722656 13.710938 10.738281 C 13.730469 10.746094 13.75 10.753906 13.773438 10.761719 C 13.800781 10.769531 13.828125 10.78125 13.859375 10.785156 C 13.878906 10.792969 13.902344 10.792969 13.925781 10.796875 C 13.953125 10.800781 13.980469 10.804688 14.011719 10.804688 C 14.019531 10.804688 14.027344 10.808594 14.035156 10.808594 C 14.054688 10.808594 14.074219 10.804688 14.09375 10.804688 C 14.113281 10.800781 14.128906 10.800781 14.148438 10.796875 C 14.179688 10.792969 14.207031 10.785156 14.238281 10.777344 C 14.257812 10.773438 14.273438 10.769531 14.289062 10.765625 C 14.320312 10.753906 14.355469 10.742188 14.386719 10.726562 C 14.398438 10.71875 14.414062 10.714844 14.425781 10.707031 C 14.472656 10.683594 14.515625 10.65625 14.554688 10.625 L 15.253906 10.078125 C 15.480469 9.90625 15.691406 9.714844 15.894531 9.515625 L 20.359375 5.050781 C 22.191406 5.851562 23.199219 6.863281 23.199219 7.914062 C 23.199219 7.9375 23.195312 7.957031 23.195312 7.976562 C 23.195312 7.980469 23.195312 7.980469 23.195312 7.980469 C 23.101562 10.351562 17.976562 12.355469 12 12.355469 C 6.023438 12.355469 0.898438 10.351562 0.804688 7.980469 C 0.804688 7.980469 0.804688 7.980469 0.804688 7.976562 C 0.804688 7.957031 0.800781 7.9375 0.800781 7.914062 C 0.800781 6.863281 1.808594 5.851562 3.640625 5.050781 Z M 5.042969 12.210938 L 1.855469 18.589844 C 1.207031 18.042969 0.828125 17.445312 0.804688 16.816406 C 0.804688 16.8125 0.800781 16.804688 0.800781 16.800781 L 0.800781 9.828125 C 1.648438 10.800781 3.132812 11.625 5.042969 12.210938 Z M 23.199219 18.796875 C 23.199219 21.179688 18.070312 23.195312 12 23.195312 C 5.929688 23.195312 0.800781 21.179688 0.800781 18.777344 C 0.800781 18.765625 0.800781 18.75 0.800781 18.734375 L 0.800781 18.660156 C 2.523438 20.625 6.855469 21.996094 12 21.996094 C 17.144531 21.996094 21.476562 20.625 23.199219 18.660156 L 23.199219 18.769531 C 23.199219 18.777344 23.199219 18.785156 23.199219 18.796875 Z M 23.199219 16.800781 C 23.199219 16.804688 23.195312 16.8125 23.195312 16.816406 C 23.183594 17.125 23.085938 17.425781 22.914062 17.714844 L 20.070312 11.824219 C 21.445312 11.285156 22.523438 10.605469 23.199219 9.828125 Z M 23.199219 16.800781"/>
</svg>

<svg xmlns="http://www.w3.org/2000/svg" width="32" height="32" viewBox="0 0 24 24">
    <path d="M24 7.914c0-1.324-1.074-2.543-3.04-3.465l2.747-2.746a1 1 0 0 0 0-1.414 1.022 1.022 0 0 0-1.414 0l-3.398 3.399c-2.008-.583-4.383-.891-6.895-.891-2.512 0-4.887.308-6.895.89L1.707.29a1.022 1.022 0 0 0-1.414 0 1 1 0 0 0 0 1.414L3.039 4.45C1.074 5.371 0 6.59 0 7.914c0 .024.004.043.004.063 0 .007-.004.011-.004.02v10.8c0 2.914 5.27 5.2 12 5.2 6.7 0 11.953-2.267 12-5.188V7.996c0-.008-.004-.012-.004-.02 0-.019.004-.038.004-.062zm-12.863 5.23l.664.012L8.84 20.09l-2.633-7.563c1.426.336 3.035.547 4.758.61.058.004.113.004.172.008zm1.898-.007c2.207-.078 4.223-.407 5.914-.922l-2.972 7.906-2.985-6.98c.016 0 .028-.004.043-.004zm-4.75 7.793c-2.383-.348-4.426-1.016-5.773-1.864l3.023-6.043zm4.113-7.137l3.067 7.172a26.49 26.49 0 0 1-6.172.094zm7.215-1.078l2.742 5.683c-1.097 1.047-3.19 1.91-5.773 2.387zM22.86.855a.198.198 0 0 1 .282 0 .198.198 0 0 1 0 .282l-2.97 2.972-4.843 4.84a6.316 6.316 0 0 1-.566.5l-.7.543c-.007.008-.015.012-.023.012-.008.004-.02 0-.031-.016-.012-.011-.016-.02-.016-.027 0-.008 0-.02.012-.031l.543-.7c.152-.195.32-.386.496-.562zm-22 0a.198.198 0 0 1 .282 0l3.093 3.09 4.72 4.723c.179.176.347.367.5.562l.542.7c.008.008.012.015.012.023 0 0 .004 0 .004.004 0 .008-.004.016-.02.031-.027.028-.039.02-.055.004l-.699-.543c-.09-.07-.168-.148-.25-.222-.105-.09-.218-.18-.316-.278L3.828 4.11.86 1.137a.198.198 0 0 1 0-.282zm2.782 4.196l4.464 4.465c.2.199.415.39.641.562l.7.547a.858.858 0 0 0 .18.105l.081.036c.02.004.04.007.063.015.023.004.05.012.078.016.023.004.043.004.062.008.02 0 .035.004.055.004.008 0 .015-.004.023-.004.032 0 .059-.004.09-.008l.063-.012a.848.848 0 0 0 .093-.027c.02-.008.036-.012.055-.02.035-.015.066-.035.098-.054l.043-.024c.039-.027.078-.062.117-.098.004-.003.008-.003.012-.007a.83.83 0 0 0 .07-1.117l-.543-.7a6.73 6.73 0 0 0-.566-.636l-3.766-3.77c1.844-.48 3.988-.738 6.246-.738 2.258 0 4.402.258 6.246.742L14.48 8.102a7.3 7.3 0 0 0-.566.64l-.543.7a.79.79 0 0 0-.129.238c-.008.011-.012.023-.015.035-.008.015-.008.035-.012.05a.72.72 0 0 0-.02.098c-.004.028-.004.059-.004.09 0 .02-.004.04 0 .059a.834.834 0 0 0 .25.543c.004.004.012.008.016.011a.849.849 0 0 0 .113.094c.016.012.035.02.051.031.027.016.059.032.09.047l.062.024c.028.008.055.02.086.023.02.008.043.008.067.012.027.004.054.008.086.008.008 0 .015.004.023.004.02 0 .04-.004.059-.004.02-.004.035-.004.054-.008.032-.004.059-.012.09-.02l.051-.011c.031-.012.066-.024.098-.04.011-.007.027-.011.039-.019a.723.723 0 0 0 .129-.082l.699-.547c.226-.172.437-.363.64-.562L20.36 5.05c1.832.8 2.84 1.812 2.84 2.863 0 .024-.004.043-.004.063v.003c-.093 2.372-5.218 4.375-11.195 4.375S.898 10.352.805 7.98v-.003c0-.02-.004-.04-.004-.063 0-1.05 1.008-2.062 2.84-2.863zm1.402 7.16L1.855 18.59c-.648-.547-1.027-1.145-1.05-1.774 0-.003-.004-.011-.004-.015V9.828c.847.973 2.332 1.797 4.242 2.383zm18.156 6.586c0 2.383-5.129 4.398-11.199 4.398S.8 21.18.8 18.777V18.66c1.723 1.965 6.055 3.336 11.2 3.336s9.477-1.371 11.2-3.336v.137zm0-1.996c0 .004-.004.012-.004.015a1.89 1.89 0 0 1-.28.899l-2.845-5.89c1.375-.54 2.453-1.22 3.13-1.997zm0 0"/>
</svg>
